X: 13
T: Mazurka in A Minor, Op. 17, No. 4
C: Frederic Chopin
%%abc-version 2.0
%%abcx-abcm2ps-target-version 5.9.1 (29 Sep 2008)
%%abc-creator hum2abc beta
%%abcx-conversion-date 2021/01/17 12:55:01
%%abc-edited-by Craig Stuart Sapp
%%abcx-initial-encoding-date 2005/02/21/
%%gracespace 0 6 6
%%humdrum-veritas 3465077901
%%humdrum-veritas-data 3718535894
%%linebreak <none>
%%barnumbers 0
L: 1/4
M: 3/4
N: Derived from mazurka17-4.krn
Q: "Lento, ma non troppo" 1/4=152
%%staves {1 2}
V: 1 clef=treble
V: 2 clef=bass
K: C
[V:1] z3 | 
[V:2] z[A,B,F][A,CF] | 
[V:1] z3 | 
[V:2] [A,DF][A,B,F][A,CF] | 
[V:1] z3 | 
[V:2] [A,DF][A,B,F][A,CF] | 
[V:1] (3D/E/D/zz ||  
[V:2] z[A,2-C2F2-] ||  
[V:1] B/>c/dA | 
[V:2] [A,DF][A,DF][A,DF] | 
[V:1] {/A}c2B/c/ | 
[V:2] [A,CF][A,CF][A,CF] | 
[V:1] d/e/fg3//d// | 
[V:2] [G,CF][G,B,F][G,B,F] | 
[V:1] !accent!e3 | 
[V:2] [G,B,E][G,B,E][G,B,E] | 
[V:1] ^f^d2 | 
[V:2] [^F,^A,E][F,A,^D][F,A,D] | 
[V:1] =f=d2 | 
[V:2] [=F,=A,_E][F,A,=D][F,A,D] | 
[V:1] e/<B/-B2 | 
[V:2] [=E,^G,D][E,G,D][E,G,D] | 
[V:1] c/<^G/-G2 | 
[V:2] [E,A,D][E,B,D][E,B,D] | 
[V:1] (3B/c/B/ (3A/B/c/ (3e/>d/A/ | 
[V:2] A,,[A,DF][A,DF] | 
[V:1] {/A}!accent!c2B/c/ | 
[V:2] [A,CF][A,CF][A,CF] | 
[V:1] (5:4:15d//e//d//^c//d//^d//e//f//^f//g//^g//b//a//=g//=f// | 
[V:2] [G,CF][G,B,F][G,B,F] | 
[V:1] !accent!e3 | 
[V:2] [G,B,E][G,B,E][G,B,E] | 
[V:1] z{/^f}^d2 | 
[V:2] [^F,^A,E][F,A,^D][F,A,D] | 
[V:1] (3:2:6e//=f//_a//g//^f//=f//=d2 | 
[V:2] [=F,=A,_E][F,A,=D][F,A,D] | 
[V:1] {/^g} !wedge!c'/z//!mordent!b// !wedge!g/ z/^G | 
[V:2] [E,,E,][E,B,D][E,B,D] | 
[V:1] A3 | 
[V:2] A,,[E,A,C][A,CE] | 
[V:1] B/>c/dA | 
[V:2] [A,DF][A,DF][A,DF] | 
[V:1] {/A}c2B/c/ | 
[V:2] [A,CF][A,CF][A,CF] | 
[V:1] !mordent!d/^c/ (3.d/.e/.f/ .g/z//d// | 
[V:2] [G,CF][G,B,F][G,B,F] | 
[V:1] !accent!e3 | 
[V:2] [G,B,E][G,B,E][G,B,E] | 
[V:1] ^f^d2 | 
[V:2] [^F,^A,E][F,A,^D][F,A,D] | 
[V:1] =f=d2 | 
[V:2] [=F,=A,_E][F,A,=D][F,A,D] | 
[V:1] e/<!accent!B/-B2 | 
[V:2] [=E,^G,D][E,G,D][E,G,D] | 
[V:1] c/<!accent!^G/-G7//B// | 
[V:2] [E,A,D][E,B,D][E,B,D] | 
[V:1] (3:2:6B//B//B//B//c//B// (3A/B/c/ (3e/d/A/ | 
[V:2] A,,[A,DF][A,DF] | 
[V:1] {/A}c2B/c/ | 
[V:2] [A,CF][A,CF][_A,CF] | 
[V:1] (5:4:15d//e//d//^c//d//b//f//a//e//g//d//f//A//G//d// | 
[V:2] [G,CF][G,B,F][G,B,F] | 
[V:1] !accent!e3 | 
[V:2] [G,B,E][G,B,E][G,B,E] | 
[V:1] z{/^f}^d2 | 
[V:2] [^F,^A,E][F,A,^D][F,A,D] | 
[V:1] (3:2:6=e//=f//_a//g//^f//=f//=d2 | 
[V:2] [=F,=A,_E][F,A,=D][F,A,D] | 
[V:1] {/^g} !wedge!c'/z//!mordent!b// !wedge!g/ z/^G | 
[V:2] [=E,,=E,][E,B,D][E,B,D] | 
[V:1] A2!accent!E | 
[V:2] A,,[E,C]z | 
[V:1] !wedge!e/ z/ ^d/B/=d/B/ | 
[V:2] [B,,^G,]E,,.E,, | 
[V:1] (3d/e/d/ !wedge!c/z//a//!accent!A | 
[V:2] [C,A,]E,,.E,, | 
[V:1] (3e/f/e/ ^d/z//B//=d/B/ | 
[V:2] [B,,^G,]E,,.E,, | 
[V:1] (3d/e/d/ !wedge!^c/z//=c//!accent!^D | 
[V:2] [A,,^F,]E,,.E,, | 
[V:1] {/E}e!accent!^d//B/ z// !accent!=d//B/ z// | 
[V:2] [B,,^G,]E,,.E,, | 
[V:1] (3d/e/d/ !wedge!c/z//[e//c'//]!accent!A | 
[V:2] [C,A,]E,,.E,,[K:clef=treble] | 
[V:1] (3_B/e/d/.[^G=B].[GB] & _B/A/z2 | 
[V:2] (3G/^F/=F/.E.E | 
[V:1] (3_B/e/d/[^G2=B2]- & _B/A/x2 | 
[V:2] (3=G/^F/=F/E2[K:clef=bass] | 
[V:1] B/>c/d3/A/ & G2-G/A/ | 
[V:2] [A,DF][A,DF][A,DF] | 
[V:1] {/A}c2B/c/ | 
[V:2] [A,CF][A,CF][A,CF] | 
[V:1] !mordent!d/>^c/ (3.d/.e/.f/ .g/z//d// | 
[V:2] [G,CF][G,B,F][G,B,F] | 
[V:1] e3 | 
[V:2] [G,B,E][G,B,E][G,B,E] | 
[V:1] ^f^d2 | 
[V:2] [^F,^A,E][F,A,^D][F,A,D] | 
[V:1] =f=d2 | 
[V:2] [=F,=A,_E][F,A,=D][F,A,D] | 
[V:1] e/<B/-B2 | 
[V:2] [=E,^G,D][E,G,D][E,G,D] | 
[V:1] c/<^G/-G7//B// | 
[V:2] [E,A,D][E,B,D][E,B,D] | 
[V:1] B//B//c//B// (3A/B/c/ (3e/>d/A/ | 
[V:2] A,,[A,DF][A,DF] | 
[V:1] {/A}c2(3B/c/^c/ | 
[V:2] [A,CF][A,CF][_A,CF] | 
[V:1] (5:4:15d//e//d//^c//d//^d//e//f//^f//g//^g//b//a//=g//=f// | 
[V:2] [G,CF][G,B,F][G,B,F] | 
[V:1] !accent!e3 | 
[V:2] [G,B,E][G,B,E][G,B,E] | 
[V:1] z^d2 | 
[V:2] [^F,^A,E][F,A,^D][F,A,D] | 
[V:1] (3:2:6=e//=f//_a//g//^f//=f//!accent!=d2 | 
[V:2] [=F,=A,_E][F,A,=D][F,A,D] | 
[V:1] {/^g} !wedge!c'/z//!mordent!b// !wedge!g/ z/^G | 
[V:2] =E,,[E,B,D][E,B,D] | 
[V:1] A3 & zCC ||  
[V:2] z[E,A,][E,A,] & A,,3 ||  
[V:1]  [K:A] c/B/AF & CCC | 
[V:2]  [K:A] .[A,,E,].[A,,E,].[A,,E,] | 
[V:1] {/GF}E3 & D/D/DC/B,/ | 
[V:2] [A,,E,][A,,E,][A,,E,] | 
[V:1] c/B/AF & CCC | 
[V:2] [A,,E,][A,,E,][A,,E,] | 
[V:1] {/GF}E3 & (3D/D/D/DC/B,/ | 
[V:2] [A,,E,][A,,E,][A,,E,] | 
[V:1] E/F/GA & D[DE][DE] | 
[V:2] [A,,E,B,][A,,E,B,][A,,E,B,] | 
[V:1] B/c/d^d & [DEG][DEG][=DEG] | 
[V:2] [A,,E,B,][A,,E,B,][A,,E,B,] | 
[V:1] e/=d/Bc & [DEG][DEG][DEG] | 
[V:2] [A,,E,B,][A,,E,B,][A,,E,B,] | 
[V:1] A/c/!accent!B2 & C/ z/[B,EG][DF] | 
[V:2] .[A,,/E,/A,/] z/[E,,2E,2] | 
[V:1] c/B/AF & [CE]CC | 
[V:2] [A,,E,][A,,E,][A,,E,] | 
[V:1] {/GF}E3 & D/D/DC/B,/ | 
[V:2] [A,,E,][A,,E,][A,,E,] | 
[V:1] c/B/AF & CCC | 
[V:2] [A,,E,][A,,E,][A,,E,] | 
[V:1] {/GF}E3 & (3D/D/D/DC/B,/ | 
[V:2] [A,,E,][A,,E,][A,,E,] | 
[V:1] E/F/GA & D[DE][DE] | 
[V:2] [A,,E,B,][A,,E,B,][A,,E,B,] | 
[V:1] B/^B<!accent!cf/ & [DEG][CA][C/A/]F/ | 
[V:2] [A,,E,B,][A,,E,A,][A,,E,A,] | 
[V:1] e/=B<!accent!cf/ & [EG][CA][C/A/]F/ | 
[V:2] [A,,E,B,][A,,E,][A,,E,] | 
[V:1] e/^d<!accent!=d^B/ & [DEG][DEG][DEG] | 
[V:2] [A,,E,B,][A,,E,B,][A,,E,B,] | 
[V:1] c/=B/AF & [CA]CC | 
[V:2] [A,,E,][A,,E,][A,,E,] | 
[V:1] {/GF}E3 & D/D/DC/B,/ | 
[V:2] [A,,E,][A,,E,][A,,E,] | 
[V:1] c/B/AF & CCC | 
[V:2] [A,,E,][A,,E,][A,,E,] | 
[V:1] {/GF}E3 & (3D/D/D/DC | 
[V:2] [A,,E,][A,,E,][A,,E,] | 
[V:1] E/F/GA & D[DE][DE] | 
[V:2] [A,,E,B,][A,,E,B,][A,,E,B,] | 
[V:1] B/c/d^d & [DEG][DEG][=DEG] | 
[V:2] [A,,E,B,][A,,E,B,][A,,E,B,] | 
[V:1] e/=d/Bc/B/ & [DEG][DEG][DEG] | 
[V:2] [A,,E,B,][A,,E,B,][A,,E,B,] | 
[V:1] A/c/!accent!B2 & C/ z<[B,EG][D/F/] | 
[V:2] !wedge![A,,/E,/A,/] z/[E,,2E,2] | 
[V:1] c/B/AF & [CE]CC | 
[V:2] [A,,E,][A,,E,][A,,E,] | 
[V:1] E3 & D/D/DC/B,/ | 
[V:2] [A,,E,][A,,E,][A,,E,] | 
[V:1] c/B/AF & CCC | 
[V:2] [A,,E,][A,,E,][A,,E,] | 
[V:1] {/GF}E3 & (3D/D/D/DC/B,/ | 
[V:2] [A,,E,][A,,E,][A,,E,] | 
[V:1] E/F/GA & D[DE][DE] | 
[V:2] [A,,E,B,][A,,E,B,][A,,E,B,] | 
[V:1] B/c/de & [DEG][DEG][DEG] | 
[V:2] [A,,E,B,][A,,E,B,][A,,E,B,] | 
[V:1] =f/z//e// {/=g}=f3/e/ & [D/G/] z// E// {/=G}=F3/E/ | 
[V:2] [A,,/E,/B,/] z// x//xx | 
[V:1] {/=g} =f/>e/x2 & {/=G} =F/>E/f3/B/- ||  
[V:2] x=F2- ||  
[V:1]  [K:C] B/>c/dA | 
[V:2]  [K:C] F3- & [A,D][A,D][A,D] | 
[V:1] {/A}c2B/c/ | 
[V:2] F3- & [A,C][A,C][A,C] | 
[V:1] {/de} d/^c/ (3.d/.e/.f/ .g/z//d// | 
[V:2] F3 & [G,C][G,B,][G,B,] | 
[V:1] !accent!e3 | 
[V:2] [G,B,E][G,B,E][G,B,E] | 
[V:1] ^f^d2 | 
[V:2] [^F,^A,E][F,A,^D][F,A,D] | 
[V:1] =f=d2 | 
[V:2] [=F,=A,_E][F,A,=D][F,A,D] | 
[V:1] e/<!accent!B/-B2 | 
[V:2] [=E,^G,D][E,G,D][E,G,D] | 
[V:1] c/<!accent!^G/-G7//B// | 
[V:2] [E,A,D][E,B,D][E,B,D] | 
[V:1] (3B/c/B/ (3A/B/c/ {/c} (3e/>d/A/ | 
[V:2] A,,[A,DF][A,DF] | 
[V:1] {/A}c2(3B/c/^c/ | 
[V:2] [A,CF][A,CF][_A,CF] | 
[V:1] (3d/=c'/b/ (3=c/B/a/ (3g/A/G/ | 
[V:2] [G,CF][G,B,F][G,B,F] | 
[V:1] !accent!e3 | 
[V:2] [G,B,E][G,B,E][G,B,E] | 
[V:1] z{/^f}^d2 | 
[V:2] [^F,^A,E][F,A,^D][F,A,D] | 
[V:1] (3:2:6=e//=f//_a//g//^f//=f//!accent!=d2 | 
[V:2] [=F,=A,_E][F,A,=D][F,A,D] | 
[V:1] {/^g} .[c'/e'/]z//.[b//e'//] .[g/e'/] z/^G | 
[V:2] =E,,[E,B,D][E,B,D] | 
[V:1] A2!accent!e- | 
[V:2] x[E,C][E,C] & A,,3 | 
[V:1] e/z//^d// !wedge!A/ z/^D | 
[V:2] x[^F,C][F,C] & A,,3 | 
[V:1] !accent![A3^d3-] | 
[V:2] x[=F,C][F,C] & A,,3 | 
[V:1] d/z//=d// !wedge!^G/ z/=D | 
[V:2] x[F,B,][F,B,] & A,,3 | 
[V:1] [^G3d3-] | 
[V:2] x[F,_B,][F,B,] & A,,3 | 
[V:1] d/z//^c// !wedge!=G/ z/^C | 
[V:2] x[E,_B,][E,B,] & A,,3 | 
[V:1] !accent![^F3=c3] | 
[V:2] x[_E,A,][E,A,] & A,,3 | 
[V:1] B/c/dA & =FFF | 
[V:2] x[D,A,][D,A,] & A,,3 | 
[V:1] [E2c2]!accent!e- | 
[V:2] x[=E,C][E,C] & A,,3 | 
[V:1] e/z//^d// !wedge!A/ z/^D | 
[V:2] x[^F,C][F,C] & A,,3 | 
[V:1] !accent![A3^d3-] | 
[V:2] x[=F,C][F,C] & A,,3 | 
[V:1] d/z//=d// !wedge!^G/ z/=D | 
[V:2] x[F,B,][F,B,] & A,,3 | 
[V:1] [^G3d3-] | 
[V:2] x[F,_B,][F,B,] & A,,3 | 
[V:1] d/z//^c// !wedge!=G/ z/^C | 
[V:2] x[E,_B,][E,B,] & A,,3 | 
[V:1] !accent![^F3=c3] | 
[V:2] x[_E,A,][E,A,] & A,,3 | 
[V:1] B/c/dA & =FFF | 
[V:2] x[D,A,][D,A,] & A,,3 | 
[V:1] [E3c3] | 
[V:2] x[=E,C][E,C] & A,,3 | 
[V:1] zzA | 
[V:2] z[E,C]z & A,,2z | 
[V:1] c2z | 
[V:2] z[E,C]A,, | 
[V:1] zzc | 
[V:2] [E,C]A,,z | 
[V:1] A3- | 
[V:2] z3 | 
[V:1] A3- | 
[V:2] z.[A,B,F].[A,CF] | 
[V:1] A3 | 
[V:2] .[A,DF].[A,B,F].[A,CF] | 
[V:1] z3 | 
[V:2] .[A,DF].[A,B,F].[A,CF] | 
[V:1] (3D/E/D/z!fermata!z |]  
[V:2] z!fermata![A,2C2F2] |]  


